X: 27893
T: Mountain Lark, The
R: reel
M: 4/4
K: Edorian
E2 (BA) Bdef|deBd AFDF|E2 (BA) Bdef|dBAF BEEz|
E2 (BA) Bdef|deBd AFDF|E2 (BA) Bdef|gefd (Be)ez||
e(B~B2) efge|fdad bdad|e(B~B2) efge|fedf e2(ef)|
e(B~B2) efge|fdad bdad|gafg egfe|dBAF (BE)Ez|

